X: 10601
Q: "Moderato"
M: 3/4
L: 1/8
K: Eb
E F | G2 G2 A2 | B2 c2 B2 | c2 f2 d2 | e2 z2 d e |
f2 B2 B2 | e2 z2 d e | f2 B2 B2 | e2 z2 d e | f2 d2 B2 | e2 d2 c2 |
c2 ed c=B | c2 z2 zd | e2 BG E2 | FA c2 BA | G2 B2 =A2 | B2 z2 zd |
e2 BA GF | G2 E2 E2 | c2 f2 e2 | d2 z2 d e | f2 B2 B2 |
e4 d c | B2 B2 B2 | B6- | B4 B2 | G2 EF GE |
c2 FG AF | B2 BA GF | E3 z2 e B | e2 ed c=B | c2 c_B AG |



